polaris-icons/icons/newicons/PersonalizedTextMajor.svg

<svg width="20" height="20" viewBox="0 0 20 20" fill="none" xmlns="http://www.w3.org/2000/svg">
<path d="M5.25 4C3.73122 4 2.5 5.23122 2.5 6.75V8.68934L1.71967 9.46967C1.42678 9.76256 1.42678 10.2374 1.71967 10.5303L2.5 11.3107V13.25C2.5 14.7688 3.73122 16 5.25 16H5.5C5.91421 16 6.25 15.6642 6.25 15.25C6.25 14.8358 5.91421 14.5 5.5 14.5H5.25C4.55964 14.5 4 13.9404 4 13.25V11C4 10.8011 3.92098 10.6103 3.78033 10.4697L3.31066 10L3.78033 9.53033C3.92098 9.38968 4 9.19891 4 9V6.75C4 6.05964 4.55964 5.5 5.25 5.5H5.5C5.91421 5.5 6.25 5.16421 6.25 4.75C6.25 4.33579 5.91421 4 5.5 4H5.25Z" fill="black"/>
<path d="M14.75 16C16.2688 16 17.5 14.7688 17.5 13.25V11.3107L18.2803 10.5303C18.5732 10.2374 18.5732 9.76256 18.2803 9.46967L17.5 8.68934V6.75C17.5 5.23122 16.2688 4 14.75 4H14.5C14.0858 4 13.75 4.33579 13.75 4.75C13.75 5.16421 14.0858 5.5 14.5 5.5H14.75C15.4404 5.5 16 6.05964 16 6.75V9C16 9.19891 16.079 9.38968 16.2197 9.53033L16.6893 10L16.2197 10.4697C16.079 10.6103 16 10.8011 16 11V13.25C16 13.9404 15.4404 14.5 14.75 14.5H14.5C14.0858 14.5 13.75 14.8358 13.75 15.25C13.75 15.6642 14.0858 16 14.5 16H14.75Z" fill="black"/>
<path fill-rule="evenodd" clip-rule="evenodd" d="M7.75 7.75C7.75 6.50736 8.75736 5.5 10 5.5C11.2426 5.5 12.25 6.50736 12.25 7.75C12.25 8.99264 11.2426 10 10 10C8.75736 10 7.75 8.99264 7.75 7.75ZM10 7C9.58579 7 9.25 7.33579 9.25 7.75C9.25 8.16421 9.58579 8.5 10 8.5C10.4142 8.5 10.75 8.16421 10.75 7.75C10.75 7.33579 10.4142 7 10 7Z" fill="black"/>
<path d="M8.16267 13.3681C8.518 12.6813 9.22672 12.25 10 12.25C10.7733 12.25 11.482 12.6813 11.8373 13.3681L12.0839 13.8446C12.2742 14.2125 12.7267 14.3565 13.0946 14.1661C13.4625 13.9758 13.6065 13.5233 13.4161 13.1554L13.1696 12.6788C12.5566 11.494 11.334 10.75 10 10.75C8.66601 10.75 7.44339 11.494 6.83041 12.6788L6.58387 13.1554C6.39354 13.5233 6.53748 13.9758 6.90537 14.1661C7.27327 14.3565 7.7258 14.2125 7.91613 13.8446L8.16267 13.3681Z" fill="black"/>
</svg>

<svg viewBox="0 0 20 20" fill="none" xmlns="http://www.w3.org/2000/svg"><path d="M5.25 4a2.75 2.75 0 0 0-2.75 2.75v1.94l-.78.78a.75.75 0 0 0 0 1.06l.78.78v1.94a2.75 2.75 0 0 0 2.75 2.75h.25a.75.75 0 0 0 0-1.5h-.25c-.69 0-1.25-.56-1.25-1.25v-2.25a.75.75 0 0 0-.22-.53l-.47-.47.47-.47a.75.75 0 0 0 .22-.53v-2.25c0-.69.56-1.25 1.25-1.25h.25a.75.75 0 0 0 0-1.5h-.25Z" fill="#5C5F62"/><path d="M14.75 16a2.75 2.75 0 0 0 2.75-2.75v-1.94l.78-.78a.75.75 0 0 0 0-1.06l-.78-.78v-1.94a2.75 2.75 0 0 0-2.75-2.75h-.25a.75.75 0 0 0 0 1.5h.25c.69 0 1.25.56 1.25 1.25v2.25c0 .199.079.39.22.53l.47.47-.47.47a.75.75 0 0 0-.22.53v2.25c0 .69-.56 1.25-1.25 1.25h-.25a.75.75 0 0 0 0 1.5h.25Z" fill="#5C5F62"/><path fill-rule="evenodd" clip-rule="evenodd" d="M7.75 7.75a2.25 2.25 0 1 1 4.5 0 2.25 2.25 0 0 1-4.5 0Zm2.25-.75a.75.75 0 1 0 0 1.5.75.75 0 0 0 0-1.5Z" fill="#5C5F62"/><path d="M8.163 13.368a2.069 2.069 0 0 1 3.674 0l.247.477a.75.75 0 1 0 1.332-.69l-.246-.476a3.569 3.569 0 0 0-6.34 0l-.246.476a.75.75 0 1 0 1.332.69l.247-.477Z" fill="#5C5F62"/></svg>
